icon/lg/umu.svg

<?xml version="1.0" encoding="UTF-8"?>
<svg viewBox="0 0 256 346" version="1.1" xmlns="http://www.w3.org/2000/svg" xmlns:xlink="http://www.w3.org/1999/xlink" preserveAspectRatio="xMidYMid" height="1em" width="1em">
  <g>
    <path d="M119.860318,20.6225885 C182.707016,9.52092641 238.215326,0.300901936 243.107584,0.112738171 C250.069643,-0.0754255934 252.515772,0.677229465 254.021082,3.49968594 C256.090884,7.45112499 256.843539,232.306824 254.773737,237.763573 C251.763117,245.478287 246.118204,238.892556 208.861779,184.889555 C187.599273,154.218861 162.197165,118.091419 152.224486,104.355464 C135.477911,81.3994845 134.348928,79.1415193 135.101583,72.1794601 L136.042402,64.8410732 L131.526472,68.6043485 C129.080343,70.6741499 126.44605,73.1202789 125.881559,74.0610977 C125.128904,75.0019165 123.059102,75.1900803 121.365628,74.4374252 C118.543172,73.4966064 118.355008,71.6149688 119.107663,63.3357631 C119.672154,58.0671777 120.801137,51.1051184 121.553792,48.0944982 C122.494611,43.9548953 122.306447,42.8259128 120.236646,43.5785678 C118.731336,44.1430591 116.849698,49.4116445 115.720715,56.3737038 C114.591733,63.5239269 112.710095,68.6043485 111.204785,69.1688398 C108.570492,70.1096586 108.570492,68.6043485 112.145604,49.035317 C113.086423,44.1430591 112.898259,42.8259128 110.828457,43.5785678 C109.323147,44.1430591 107.629673,48.2826619 107.065182,53.7394111 C105.371708,67.8516935 104.054562,70.1096586 95.96352,73.8729339 C90.3186071,76.5072266 84.8618579,82.3403033 73.7601958,97.3934045 C47.6054325,132.956356 39.1380631,146.504147 39.8907181,151.772733 C40.8315369,159.111119 45.9119586,161.557248 52.1213628,157.417645 C64.3520075,149.702931 82.4157289,141.423725 90.3186071,140.294743 C95.0227012,139.542088 103.301907,136.343304 108.94682,133.332684 C117.037862,128.816753 119.483991,128.064098 120.612973,130.1339 C130.96198,145.939656 149.778357,187.335684 165.019622,227.60273 C176.121284,257.144441 203.781357,344.452428 202.276047,345.769574 C201.89972,346.145901 199.453591,346.145901 197.007462,345.393246 C193.056023,344.452428 190.986221,340.312825 181.766197,314.722553 C175.744956,298.352305 169.535552,283.487368 168.030242,281.60573 C165.207785,278.59511 158.810217,278.406946 84.6736941,278.406946 C24.8376169,278.406946 3.95143906,277.842455 2.25796518,276.148981 C0.564491294,274.455507 1.05769276e-14,246.042779 0,159.675611 C-1.17751852e-14,63.5239269 0.376327529,45.2720417 2.63429271,43.3904041 C4.13960282,42.0732577 56.8254569,31.9124144 119.860318,20.6225885 Z" fill="#FFBD2B" fill-rule="nonzero"/>
  </g>
</svg>

<svg width="256" height="346" xmlns="http://www.w3.org/2000/svg" preserveAspectRatio="xMidYMid"><path d="M119.86 20.623C182.707 9.52 238.215.3 243.108.113c6.962-.188 9.408.564 10.913 3.387 2.07 3.951 2.823 228.807.753 234.264-3.01 7.714-8.656 1.129-45.912-52.874-21.263-30.671-46.665-66.799-56.638-80.535C135.478 81.4 134.35 79.142 135.102 72.18l.94-7.338-4.516 3.763c-2.446 2.07-5.08 4.516-5.644 5.457-.753.94-2.823 1.13-4.516.376-2.823-.94-3.011-2.822-2.258-11.101.564-5.269 1.693-12.23 2.446-15.242.94-4.14.752-5.268-1.317-4.515-1.506.564-3.387 5.833-4.516 12.795-1.13 7.15-3.01 12.23-4.516 12.795-2.635.94-2.635-.565.94-20.134.941-4.892.753-6.21-1.317-5.456-1.505.564-3.198 4.704-3.763 10.16-1.693 14.113-3.01 16.37-11.101 20.134-5.645 2.634-11.102 8.467-22.204 23.52-26.155 35.563-34.622 49.111-33.87 54.38.942 7.338 6.022 9.784 12.231 5.645 12.231-7.715 30.295-15.994 38.198-17.123 4.704-.753 12.983-3.952 18.628-6.962 8.09-4.516 10.537-5.269 11.666-3.2 10.349 15.807 29.165 57.203 44.407 97.47 11.101 29.541 38.761 116.85 37.256 118.167-.376.376-2.822.376-5.269-.377-3.951-.94-6.02-5.08-15.24-30.67-6.022-16.37-12.231-31.236-13.737-33.117-2.822-3.01-9.22-3.2-83.356-3.2-59.836 0-80.723-.564-82.416-2.257C.564 274.456 0 246.043 0 159.676 0 63.524.376 45.272 2.634 43.39 4.14 42.073 56.825 31.912 119.86 20.623Z" fill="#FFBD2B"/></svg>
